packages/core/src/svgs/tokens/mono/SATT.svg

<svg width="24" height="24" viewBox="0 0 24 24" fill="none" xmlns="http://www.w3.org/2000/svg">
<path fill-rule="evenodd" clip-rule="evenodd" d="M2 12C2 6.47705 6.47645 2 12 2C17.5236 2 22 6.47705 22 12C22 17.5229 17.5236 22 12 22C6.47645 22 2 17.5229 2 12ZM3.7647 12C3.7647 16.6476 7.35235 20.2353 12 20.2353C16.6476 20.2353 20.2353 16.6476 20.2353 12C20.2353 7.35235 16.6476 3.7647 12 3.7647C7.35235 3.7647 3.7647 7.35235 3.7647 12ZM12 6.70588C9.88232 6.70588 8.18587 7.88057 7.28705 9.64707H18.5159C18.8006 10.414 19.0588 11.157 19.0588 12.0235C19.0588 12.8894 18.9035 13.5859 18.6189 14.353H14.353V18.6658C13.8317 18.8593 13.1589 18.9929 12.5882 19.0588V14.353H11.4118V19.0588C10.8412 18.9923 10.1682 18.8588 9.64707 18.6653V14.353H5.33411C5.14293 13.8353 5.00941 13.4235 4.94293 12.857L4.94116 12.5882H9.64707V11.4118H4.94175C5.34881 7.88705 8.34352 4.94116 11.9771 4.94116C14.7147 4.94116 16.5835 6.39705 17.8677 8.19881H15.85C14.8947 7.36764 13.7717 6.70588 12 6.70588ZM11.4118 11.4118V12.5882H12.5882V11.4118H11.4118ZM14.353 12.5882H17.3558C17.3671 12.5165 17.3764 12.463 17.3841 12.4177C17.4065 12.2924 17.4176 12.2283 17.4176 12.0235C17.4176 11.7976 17.4042 11.7118 17.3764 11.5453L17.3564 11.4118H14.353V12.5882Z" fill="white"/>
</svg>

<svg xmlns="http://www.w3.org/2000/svg" width="24" height="24" fill="none" viewBox="0 0 24 24">
    <path fill="#fff" fill-rule="evenodd" d="M2 12C2 6.477 6.476 2 12 2s10 4.477 10 10-4.476 10-10 10S2 17.523 2 12m1.765 0c0 4.648 3.587 8.235 8.235 8.235s8.235-3.587 8.235-8.235S16.648 3.765 12 3.765 3.765 7.352 3.765 12M12 6.706c-2.118 0-3.814 1.175-4.713 2.941h11.229c.285.767.543 1.51.543 2.377 0 .865-.155 1.562-.44 2.329h-4.266v4.313c-.521.193-1.194.327-1.765.393v-4.706h-1.176v4.706c-.57-.067-1.244-.2-1.765-.394v-4.312H5.334c-.191-.518-.325-.93-.391-1.496l-.002-.269h4.706v-1.176H4.942c.407-3.525 3.402-6.47 7.035-6.47 2.738 0 4.607 1.455 5.89 3.257H15.85c-.955-.831-2.078-1.493-3.85-1.493m-.588 4.706v1.176h1.176v-1.176zm2.941 1.176h3.003l.028-.17a1.7 1.7 0 0 0 .034-.394 2.3 2.3 0 0 0-.042-.479l-.02-.133h-3.003z" clip-rule="evenodd"/>
</svg>
